X:543
T: "Kiltgang"
N: Z1223
O: Europa, Mitteleuropa, Schweiz
R: Liebes - Lied
M: 3/4
L: 1/16
K: D
d3A | A2F2F2D2D2F2 | G6G2
A2B2 | A4A4B2c2 | d8
d3A | A2F2F2D2D2F2 | G4G4
A2B2 | A6A2B2c2 | d4z4
d2e2 | f6e2d2f2 | e2c2A4
d2e2 | f6e2d2f2 | e4z4
d3A | A2F2F2D2D2F2 | G4G4
A2B2 | A4A4B2c2 | d4z4

@@@ Tune index: 10301
